!!!!SEGMENT: Distler_Jahrkreis_26_Allein-Gott-in-der-Hoeh-sei-Ehr_3v.krn
!!!COM: Distler, Hugo
!!!CDT: 1908-1942
!!!OPR@@DE: Der Jahrkreis
!!!OPR@EN: The Year Cycle
!!!OTL@@DE: Allein Gott in der Hoeh sei Ehr
!!!OTL@EN: All glory be to God on high
!!!OPS: 5
!!!ONM: 26
**kern	**text	**kern	**text	**kern	**text
*part3	*part3	*part2	*part2	*part1	*part1
*staff3	*staff3	*staff2	*staff2	*staff1	*staff1
*Ibass	*	*Ialto	*	*Isoprn	*
*clefF4	*	*clefG2	*	*clefG2	*
*k[f# c# g#]	*	*k[f# c# g#]	*	*k[f# c# g#]	*
*MM120	*	*MM120	*	*MM120	*
*M6/4	*	*M6/4	*	*M6/4	*
=1	=1	=1	=1	=1	=1
2.r	.	4e	Al-	4a	Al-
.	.	4e	lein	4cc#	lein
.	.	([4a	Gott	[4dd	Gott
=2	=2	=2	=2	=2	=2
4r	.	8aL]	.	4dd]	.
.	.	8gnJ	.	.	.
4D	Al-	4f#)	.	4dd	in
4D	lein	8g	in	4ee	der
.	.	8a	der	.	.
2G	Gott	4b	Hoeh	(4.dd	Hoeh
.	.	4b	sei	.	.
.	.	.	.	8cc#)	.
8G	in	[4b	Ehr	4b	sei
8G	der	.	.	.	.
=3	=3	=3	=3	=3	=3
*M4/4	*	*M4/4	*	*M4/4	*
4F#	Hoeh	8b],	.	4cc#	Ehr
.	.	8a	und	.	.
4E	sei	(4.g#	Dank	4cc#,	und
4.A,	Ehr	.	.	4.cc#	Dank
.	.	8f#	.	.	.
.	.	4e)	.	.	.
8G#	und	.	.	8b	fuer
=4	=4	=4	=4	=4	=4
*M6/4	*	*M6/4	*	*M6/4	*
4.F#	Dank	(8f#L	fuer	(4dd	sei-
.	.	8g#J)	.	.	.
.	.	4a	sei-	4.cc#	.
8F#	fuer	.	.	.	.
8E	sei-	4a	ne	.	.
8D	ne	.	.	8b)	.
2.E	Gna-	(2a	Gna-	4a	ne
.	.	.	.	2b	Gna-
.	.	4g#)	.	.	.
=5	=5	=5	=5	=5	=5
2.A	de	2.a	de	2.a	de
=6:|!	=6	=6:|!	=6	=6:|!	=6
2A,	de.	2.a	de.	2.a	de.
4A	Ein	.	.	.	.
=7||	=7	=7||	=7	=7||	=7
*M4/4	*	*M4/4	*	*M4/4	*
4B	Wohl-	4r	.	4r	.
4B	ge-	4e	Ein	4a	Ein
2E	falln	4f#	Wohl-	4b	Wohl-
.	.	4gn	ge-	4cc#	ge-
=8	=8	=8	=8	=8	=8
2D	Gott	4f#	falln	2dd	falln
.	.	(4.b	Gott	.	.
[2E	an	.	.	2cc#	Gott
.	.	8a)	.	.	.
.	.	[4g#	an	.	.
=9	=9	=9	=9	=9	=9
*M6/4	*	*M6/4	*	*M6/4	*
4E]	.	4g#]	.	4b	an
4F#	uns	4f#	uns	4a#	uns
2BB,	hat,	4f#,	hat,	4b,	hat,
.	.	4.g#	nun	4b	nun
2B	nun	.	.	4cc#	ist
.	.	8a	ist	.	.
.	.	4b	gross	4dd	gross
=10	=10	=10	=10	=10	=10
4A	ist	4cc#	Fried	2.ee	Fried
4A	gross	4dd	ohn	.	.
4E	Fried	2.b	Un-	.	.
4F#	ohn	.	.	4dd	ohn
4c#	Un-	.	.	4cc#	Un-
4c#	ter-	4b	ter-	4b	ter-
=11	=11	=11	=11	=11	=11
*M4/4	*	*M4/4	*	*M4/4	*
2F#,	lass,	2a#,	lass,	2cc#,	lass
2d	all	2f#	all	2a	all
=12	=12	=12	=12	=12	=12
*M6/4	*	*M6/4	*	*M6/4	*
(4.Gn	Fehd	2d	Fehd	2b	Fehd
8A)	.	.	.	.	.
4B	hat	4gn	hat	4dd	hat
2A	nun	2e	nun	(4.cc#	nun
.	.	.	.	8b)	.
4A	ein	4a	ein	4a	ein
=13	=13	=13	=13	=13	=13
2.E	En-	(4.f#	En-	2.b	En-
.	.	8g#L	.	.	.
.	.	8a	.	.	.
.	.	8bJ)	.	.	.
2.A	de.	2.cc#	de.	2.a	de.
=14||	=14	=14||	=14	=14||	=14
=15	=15	=15	=15	=15	=15
=16	=16	=16	=16	=16	=16
=17	=17	=17	=17	=17	=17
=18	=18	=18	=18	=18	=18
=19	=19	=19	=19	=19	=19
=20	=20	=20	=20	=20	=20
=21	=21	=21	=21	=21	=21
=22	=22	=22	=22	=22	=22
=23	=23	=23	=23	=23	=23
=24	=24	=24	=24	=24	=24
=25	=25	=25	=25	=25	=25
=26	=26	=26	=26	=26	=26
=27	=27	=27	=27	=27	=27
=28	=28	=28	=28	=28	=28
=29	=29	=29	=29	=29	=29
=30	=30	=30	=30	=30	=30
=31	=31	=31	=31	=31	=31
=32	=32	=32	=32	=32	=32
=33	=33	=33	=33	=33	=33
=34	=34	=34	=34	=34	=34
=35	=35	=35	=35	=35	=35
=36	=36	=36	=36	=36	=36
==	==	==	==	==	==
*-	*-	*-	*-	*-	*-
!!!YOR: Bärenreiter-Ausgabe 676
!!!YOY: 1933
!!!EFL: 26/52
!!!URL-pdf: https://imslp.eu/files/imglnks/euimg/7/7d/IMSLP834545-PMLP518834-5-jahrkreis-EA--original-paper-600dpi.pdf#page=49 First edition, Kassel: Bärenreiter, 1933. Plate BA 676.
!!!URL-imslp: https://imslp.org/wiki/Der_Jahrkreis,_Op.5_(Distler,_Hugo)#IMSLP834545
!!!system-decoration: [(s1,s2,s3)]
!!!ENC: Lucas Hofmann
!!!END: 2024/01/08
!!!title: @{OPR@@DE}, Op. @{OPS}, Nr. @{ONM}. @{OTL@@DE}
